X: 16271
T: the Happy Night
C: James Oswald (ca.1740)
%R: jig
B: James Oswald "The Caledonian Pocket Companion" v.1 b.6 p.27 #1 (the top 7 staffs continued from p.26)
S: https://ia800501.us.archive.org/18/items/caledonianpocket01rugg/caledonianpocket01rugg_bw.pdf
Z: 2020 John Chambers <jc:trillian.mit.edu>
M: 6/8
L: 1/8
K: G
"_Brisk"(G/A/) |\
TB>AG dBG | (A/B/c)A G2A | TB>AG dBG | eAA A2B |\
c2e dcB | ABG E2(g/a/) | bag Te2d | egg g2 :|
|: a |\
Tf>ed dBA | ABd d2e | fga abc' | bgb a2b |\
c'ac' bgb | afa gfe | d2e dBG | FAB cBA |
TB>AG dBG | (A/B/)cA G2A | TB>AG gdB | aAA A2B |\
cec dBG | ABG E2(g/a/) | bag Te2d | egg g2 :|
